X:447
T:The thistle
R:Highland Schottische
P:Highland schottische
B:Kerr's First p19
S:Kerr's First p19
Z:Transcription, chords:Mike Long
M:4/4
L:1/8
K:A
"A"(C<E) E>C E2 E>F|A>Bc>B B<A A>G|\
"D"(D<F) F>E F2 F>c|"D"d>cB>A "E"(G<B) B>c|
"A"(C<E) E>C E2 E>F|A>Bc>B B<A A>E|\
"D"(3(FGA) (3(GAB) "(A)"(3(ABc) (3(Bcd)|"E"(3(cBA) (3(BAG) "A"A2A2|]
"A"c<e e>c e2 e>c|e>f (e<c) A2A2|\
"D"d<f f>g a>gf>e|"A"e>f (e<c) "E"B2 B>c|
"A"e>f e<c e>f e>c|e>f e<c A2 (AE)|\
"D"(3(FGA) (3(GAB) "(A)"(3(ABc) (3(Bcd)|"E"(3(cBA) (3(BAG) "A"A2A2|]
